assets/icons/traton/redirect.svg

<svg xmlns="http://www.w3.org/2000/svg" width="32" height="32" viewBox="0 0 32 32" fill="none">
<path d="M10 8.04883H6V26H24.0176V22H26.0176V28H4V6.04883H10V8.04883ZM28 16H26V7.41406L13.707 19.707L12.293 18.293L24.5859 6H16V4H28V16Z" fill="#001D21" />
</svg>

<svg xmlns="http://www.w3.org/2000/svg" fill="none" viewBox="0 0 32 32"><path fill="#001d21" d="M10 8H6v18h18v-4h2v6H4V6h6zm18 8h-2V7.4L13.7 19.7l-1.4-1.4L24.6 6H16V4h12z"/></svg>
